Flat-Remix-Blue-Dark/apps/scalable/numptyphysics.svg

<svg xmlns="http://www.w3.org/2000/svg" xmlns:xlink="http://www.w3.org/1999/xlink" width="512" height="512" version="1.1" viewBox="0 0 384 384"> <defs> <filter id="alpha" width="100%" height="100%" x="0%" y="0%" filterUnits="objectBoundingBox"> <feColorMatrix in="SourceGraphic" type="matrix" values="0 0 0 0 1 0 0 0 0 1 0 0 0 0 1 0 0 0 1 0"/> </filter> <mask id="mask1"> <g filter="url(#alpha)"> <rect width="384" height="384" x="0" y="0" style="fill:rgb(0%,0%,0%);fill-opacity:0.2"/> </g> </mask> <clipPath id="clip2"> <rect width="384" height="384" x="0" y="0"/> </clipPath> <g id="surface8" clip-path="url(#clip2)"> <path style="fill:none;stroke-width:6;stroke-linecap:round;stroke-linejoin:round;stroke:rgb(0%,0%,0%)" d="M 4.080729 22 C 25.080729 20.871745 26.824219 38.459635 34.375 45.503906 C 40.480469 51.19987 54.480469 54 60.080729 54" transform="matrix(6,0,0,6,0,0)"/> </g> <mask id="mask2"> <g filter="url(#alpha)"> <rect width="384" height="384" x="0" y="0" style="fill:rgb(0%,0%,0%);fill-opacity:0.2"/> </g> </mask> <clipPath id="clip3"> <rect width="384" height="384" x="0" y="0"/> </clipPath> <g id="surface11" clip-path="url(#clip3)"> <path style="fill:none;stroke-width:6;stroke-linecap:round;stroke-linejoin:round;stroke:rgb(0%,0%,0%)" d="M 37.085286 22.477214 C 37.085286 22.477214 33.925781 24.339193 33.561849 25.921224 C 33.017578 28.289062 34.285156 31.035807 35.945964 32.808594 C 37.8125 34.801432 42.570964 36.055339 43.495443 35.98763 C 48.926432 35.589844 50.839844 32.927734 52.315755 29.894531 C 53.339844 27.790365 52.742188 25.108073 52.042969 22.875 C 50.037109 17.608724 44.828776 14.648438 40.979167 14.198568 C 37.530599 13.844401 35.134115 17.966146 35.151693 17.968099 L 33.031901 20.617188" transform="matrix(6,0,0,6,0,0)"/> </g> <mask id="mask3"> <g filter="url(#alpha)"> <rect width="384" height="384" x="0" y="0" style="fill:rgb(0%,0%,0%);fill-opacity:0.2"/> </g> </mask> <clipPath id="clip4"> <rect width="384" height="384" x="0" y="0"/> </clipPath> <g id="surface14" clip-path="url(#clip4)"> <path style="fill:rgb(100.000%,100.000%,100.000%)" d="M 40.839844 24 C 31.53125 24 24.035156 31.496094 24.035156 40.804688 L 24.035156 46.804688 C 24.035156 37.496094 31.53125 30 40.839844 30 L 343.230469 30 C 352.539062 30 360.035156 37.496094 360.035156 46.804688 L 360.035156 40.804688 C 360.035156 31.496094 352.539062 24 343.230469 24 Z M 40.839844 24"/> </g> </defs> <g> <g> <path d="M 360 343.199219 L 360 40.800781 C 360 31.523438 352.476562 24 343.199219 24 L 40.800781 24 C 31.523438 24 24 31.523438 24 40.800781 L 24 343.199219 C 24 352.476562 31.523438 360 40.800781 360 L 343.199219 360 C 352.476562 360 360 352.476562 360 343.199219 Z M 360 343.199219" style="fill:rgb(100.000%,100.000%,100.000%)"/> <use mask="url(#mask1)" xlink:href="#surface8"/> <path d="M 4.080729 21 C 25.080729 19.871745 26.824219 37.459635 34.375 44.503906 C 40.480469 50.19987 54.480469 53 60.080729 53" transform="matrix(6,0,0,6,0,0)" style="fill:none;stroke-width:6;stroke-linecap:round;stroke-linejoin:round;stroke:rgb(16.862%,38.431%,75.294%)"/> <use mask="url(#mask2)" xlink:href="#surface11"/> <path d="M 37.085286 21.477214 C 37.085286 21.477214 33.925781 23.339193 33.561849 24.921224 C 33.017578 27.289062 34.285156 30.035807 35.945964 31.808594 C 37.8125 33.801432 42.570964 35.055339 43.495443 34.98763 C 48.926432 34.589844 50.839844 31.927734 52.315755 28.894531 C 53.339844 26.790365 52.742188 24.108073 52.042969 21.875 C 50.037109 16.608724 44.828776 13.648438 40.979167 13.198568 C 37.530599 12.844401 35.134115 16.966146 35.151693 16.968099 L 33.031901 19.617188" transform="matrix(6,0,0,6,0,0)" style="fill:none;stroke-width:6;stroke-linecap:round;stroke-linejoin:round;stroke:rgb(99.215%,28.627%,28.627%)"/> <use mask="url(#mask3)" xlink:href="#surface14"/> </g> <path d="M 32 447.59961 L 32 457.59961 C 32 469.96941 42.030591 480 54.400391 480 L 457.59961 480 C 469.96941 480 480 469.96941 480 457.59961 L 480 447.59961 C 480 459.96941 469.96941 470 457.59961 470 L 54.400391 470 C 42.030604 470 32 459.96941 32 447.59961 z" transform="scale(0.75)" style="opacity:0.3"/> <path d="M 54.400391 32 C 42.030591 32 32 42.030524 32 54.400391 L 32 64.400391 C 32 52.030657 42.030591 42 54.400391 42 L 457.59961 42 C 469.96941 42 480 52.030657 480 64.400391 L 480 54.400391 C 480 42.030524 469.96941 32 457.59961 32 L 54.400391 32 z" transform="scale(0.75)" style="opacity:0.1"/> </g> </svg>

<svg width="512" height="512" version="1.1" viewBox="0 0 384 384" xmlns="http://www.w3.org/2000/svg" xmlns:xlink="http://www.w3.org/1999/xlink"><defs><filter id="alpha" x="0%" y="0%" width="100%" height="100%"><feColorMatrix in="SourceGraphic" values="0 0 0 0 1 0 0 0 0 1 0 0 0 0 1 0 0 0 1 0"/></filter><mask id="b"><g filter="url(#alpha)"><rect width="384" height="384" fill-opacity=".2"/></g></mask><clipPath id="c"><rect width="384" height="384"/></clipPath><g id="a" clip-path="url(#c)"><path d="m40.84 24c-9.3086 0-16.805 7.4961-16.805 16.805v6c0-9.3086 7.4961-16.805 16.805-16.805h302.39c9.3086 0 16.805 7.4961 16.805 16.805v-6c0-9.3086-7.4961-16.805-16.805-16.805z" fill="#fff"/></g></defs><path d="m360 339.65v-295.3c0-9.0594-7.5234-16.406-16.801-16.406h-302.4c-9.2773 0-16.801 7.3467-16.801 16.406v295.3c0 9.0594 7.5234 16.406 16.801 16.406h302.4c9.2773 0 16.801-7.3467 16.801-16.406z" fill="#fff" opacity=".2" stroke="#000" stroke-width="7.4114"/><path d="m360 343.2v-302.4c0-9.2773-7.5234-16.801-16.801-16.801h-302.4c-9.2773 0-16.801 7.5234-16.801 16.801v302.4c0 9.2773 7.5234 16.801 16.801 16.801h302.4c9.2773 0 16.801-7.5234 16.801-16.801z" fill="#fff"/><g fill="none" stroke-linecap="round" stroke-linejoin="round" stroke-width="36"><path d="m24.484 133.5c126-6.7695 136.46 98.758 181.77 141.02 36.633 34.176 120.63 50.977 154.23 50.977" opacity=".3" stroke="#1a2435"/><path d="m24.484 126c126-6.7695 136.46 98.758 181.77 141.02 36.633 34.176 120.63 50.977 154.23 50.977" stroke="#2861bf"/><path d="m222.51 136.36s-18.957 11.172-21.141 20.664c-3.2656 14.207 4.3398 30.688 14.305 41.324 11.199 11.957 39.75 19.48 45.297 19.074 32.586-2.3867 44.066-18.359 52.922-36.559 6.1445-12.625 2.5586-28.719-1.6367-42.117-12.035-31.598-43.285-49.359-66.383-52.059-20.691-2.125-35.07 22.605-34.965 22.617l-12.719 15.895" opacity=".3" stroke="#000"/><path d="m222.51 128.86s-18.957 11.172-21.141 20.664c-3.2656 14.207 4.3398 30.688 14.305 41.324 11.199 11.957 39.75 19.48 45.297 19.074 32.586-2.3867 44.066-18.359 52.922-36.559 6.1445-12.625 2.5586-28.719-1.6367-42.117-12.035-31.598-43.285-49.359-66.383-52.059-20.691-2.125-35.07 22.605-34.965 22.617l-12.719 15.895" stroke="#fd4747"/></g><use width="100%" height="100%" mask="url(#b)" xlink:href="#a"/><path transform="scale(.75)" d="m54.4 32c-12.37 0-22.4 10.031-22.4 22.4v10c0-12.37 10.031-22.4 22.4-22.4h403.2c12.37 0 22.4 10.031 22.4 22.4v-10c0-12.37-10.031-22.4-22.4-22.4h-403.2z" opacity=".1" stroke-width="1.3333"/><path transform="scale(.75)" d="m32 447.6v10c0 12.37 10.031 22.4 22.4 22.4h403.2c12.37 0 22.4-10.031 22.4-22.4v-10c0 12.37-10.031 22.4-22.4 22.4h-403.2c-12.37 0-22.4-10.031-22.4-22.4z" opacity=".3" stroke-width="1.3333"/></svg>
